X:3552
T:Crooked Road, The
T:Crooked Road to Dublin, The
M:C|
L:1/8
R:reel
K:G
G2~G2 FGAF|G2FG AdcA|G2AG FGAg|1 fdcA dBcA:|2 fdcA d2Bc||
dg~g2 fgaf|dg~g2 agfe|dg~g2 fgag|fdcA d2Bc|
dg~g2 fgaf|dg~g2 a2ga|bgaf gbag|fdcA dBcA||


